X:143
T:Fox in the Dumps THO3.143, The
T:Cooper's Hornpipe,aka THO3.143
T:Swan's Hornpipe,aka THO3.143
T:Exiseman's Hornpipe,aka THO3.143, The
T:Lancaster Hornpipe,aka THO3.143
T:Smith's Hornpipe,aka THO3.143
O:England;London
M:C
L:1/8
R:.hornpipe
Z:vmp. Peter Dunk 2011.from a transcription by Fynn Titford-Mock 2006-9
B:Thompson's Compleat Collection of 200 Favourite Country Dances Vol. III.1765-72
Q:1/4=160
K:F
cB|Ac f4 ed|ef g4 fe|fg a2 bgaf|eg c4 cB|\
Ac f4 ed|ef g4 b2|afge fd cd/e/|f2 F2-F2:|
|:c2|fcAc FAcf|gfed cegb|afcA FAfa|gfed c2 Tc2|\
dB B2 Tbg Tg2|afed c2 Tc2|dBcA BGcB|A2 F2-F4:|

